lib/svgs/human.svg

<?xml version="1.0" encoding="UTF-8" standalone="no"?>
<svg width="20px" height="20px" viewBox="0 0 20 20" version="1.1" xmlns="http://www.w3.org/2000/svg" xmlns:xlink="http://www.w3.org/1999/xlink">
    <defs></defs>
    <g id="Icons" stroke="none" stroke-width="1" fill="none" fill-rule="evenodd">
        <g id="Web" transform="translate(-145.000000, -890.000000)" fill="#000000">
            <g id="audit/human" transform="translate(145.000000, 890.000000)">
                <path d="M15.9922,2.0001 L14.0592,2.0691 L14.0582,2.0691 L7.8462,2.2891 L4.0732,2.4231 C3.7422,2.4351 3.4832,2.7131 3.4952,3.0441 C3.5072,3.3681 3.7732,3.6231 4.0942,3.6231 L4.1162,3.6231 L5.5832,3.5701 L5.7072,7.0721 C5.3642,7.5781 3.4482,11.4941 3.4482,11.4941 C3.3052,11.7871 3.4212,12.1411 3.7112,12.2901 L4.8662,12.8871 L4.8662,14.5151 C4.8662,14.8461 5.1342,15.1141 5.4662,15.1141 L7.0592,15.1141 L7.0592,17.4001 C7.0592,17.5921 7.1502,17.7721 7.3052,17.8861 C7.4092,17.9611 7.5332,18.0001 7.6592,18.0001 C7.7202,18.0001 7.7822,17.9911 7.8432,17.9721 L12.9822,16.3171 C13.2292,16.2371 13.3982,16.0071 13.3982,15.7461 L13.3982,15.1151 C13.3982,14.4371 13.6542,13.7941 14.1192,13.3011 C15.0602,12.3041 15.5792,11.0001 15.5792,9.6301 C15.5792,8.6291 15.2862,7.7031 14.8072,6.9011 C14.8132,6.8641 14.7002,3.2471 14.7002,3.2471 L16.0352,3.2001 C16.3662,3.1881 16.6242,2.9101 16.6132,2.5791 C16.6002,2.2481 16.3152,1.9811 15.9922,2.0001 L15.9922,2.0001 L15.9922,2.0001 L15.9922,2.0001 M13.2462,12.4771 C12.5702,13.1931 12.1982,14.1301 12.1982,15.1151 L12.1982,15.3091 L8.2592,16.5771 L8.2592,14.5151 C8.2592,14.1841 7.9902,13.9151 7.6592,13.9151 L6.0662,13.9151 L6.0662,12.5221 C6.0662,12.2981 5.9402,12.0921 5.7412,11.9891 L4.7842,11.4941 C4.7842,11.4941 6.3832,8.2091 6.7542,7.6751 L13.7332,7.4281 C14.1362,8.0681 14.3792,8.8191 14.3792,9.6301 C14.3792,10.6921 13.9762,11.7041 13.2462,12.4771 L13.2462,12.4771 L13.2462,12.4771 L13.2462,12.4771" id="Shape"></path>
            </g>
        </g>
    </g>
</svg>

<svg xmlns="http://www.w3.org/2000/svg" viewBox="0 0 20 20">
    <path fill="#000" fill-rule="evenodd" d="M15.992 2l-1.933.07-6.213.22-3.773.133a.6.6 0 0 0 .021 1.2h.022l1.467-.053.124 3.502c-.343.506-2.259 4.422-2.259 4.422a.599.599 0 0 0 .263.796l1.155.597v1.628c0 .331.268.6.6.6H7.06V17.4a.603.603 0 0 0 .784.572l5.14-1.655a.6.6 0 0 0 .415-.57v-.632c0-.678.256-1.32.721-1.814a5.3 5.3 0 0 0 .688-6.4c.006-.037-.107-3.654-.107-3.654l1.335-.047a.6.6 0 0 0-.043-1.2m-2.746 10.477a3.828 3.828 0 0 0-1.048 2.638v.194L8.26 16.577v-2.062a.6.6 0 0 0-.6-.6H6.066v-1.393a.601.601 0 0 0-.325-.533l-.957-.495s1.6-3.285 1.97-3.819l6.98-.247a4.117 4.117 0 0 1-.488 5.05"/>
</svg>
